img/icons/sprite/icon-mail.svg

<svg viewBox="0 0 45 45" xmlns="http://www.w3.org/2000/svg">
  <circle cx="22.5" cy="22.5" r="22.5" />
  <path fill-rule="evenodd" clip-rule="evenodd"
    d="M30.1393 27.4663L25.8089 23.5L30.1393 19.5337L29.5488 18.9026L23.25 24.6719L16.9512 18.9026L16.3607 19.5337L20.6911 23.5L16.3607 27.4663L16.9512 28.0974L21.3308 24.0859L23.25 25.8438L25.1691 24.0859L29.5488 28.0974L30.1393 27.4663ZM15.5759 17.25C14.7669 17.25 14.1111 17.9488 14.1111 18.8079V28.1921C14.1111 29.0525 14.7616 29.75 15.5759 29.75H30.924C31.733 29.75 32.3889 29.0512 32.3889 28.1921V18.8079C32.3889 17.9475 31.7383 17.25 30.924 17.25H15.5759Z" />
</svg>

<svg viewBox="0 0 45 45" xmlns="http://www.w3.org/2000/svg"><circle cx="22.5" cy="22.5" r="22.5"/><path fill-rule="evenodd" clip-rule="evenodd" d="M30.14 27.466L25.808 23.5l4.33-3.966-.59-.631-6.299 5.769-6.299-5.77-.59.632 4.33 3.966-4.33 3.966.59.631 4.38-4.011 1.919 1.758 1.92-1.758 4.379 4.011.59-.63zM15.575 17.25c-.81 0-1.465.699-1.465 1.558v9.384c0 .86.65 1.558 1.465 1.558h15.348c.809 0 1.465-.699 1.465-1.558v-9.384c0-.86-.65-1.558-1.465-1.558H15.576z"/></svg>
